32x32/mimetypes/application-gnunet-directory.svg

<svg height="32" width="32" xmlns="http://www.w3.org/2000/svg"><path d="m6.375 3c-.762 0-1.375.624-1.375 1.4v25.2c0 .775.613 1.4 1.375 1.4h19.25c.761 0 1.375-.625 1.375-1.4v-17.6l-7-2-2-7z" opacity=".2"/><path d="m6.375 2c-.762 0-1.375.624-1.375 1.4v25.2c0 .775.613 1.4 1.375 1.4h19.25c.761 0 1.375-.625 1.375-1.4v-17.6l-7-2-2-7z" fill="#f4f4f7"/><path d="m27 12-9-9v7.594c0 .78.628 1.406 1.406 1.406z" opacity=".2"/><path d="m27 11-9-9v7.594c0 .78.628 1.406 1.406 1.406z" fill="#fafafa"/><path d="m6.375 2c-.762 0-1.375.625-1.375 1.4v1c0-.775.613-1.4 1.375-1.4h11.625v-1z" fill="#f4f4f7" opacity=".2"/><path d="m8 13h7v7h-7zm9 8h7v7h-7z" fill="#1d6ad7"/></svg>

<svg height="32" width="32" xmlns="http://www.w3.org/2000/svg">
    <path d="M6.375 3C5.613 3 5 3.624 5 4.4v25.2c0 .775.613 1.4 1.375 1.4h19.25c.761 0 1.375-.625 1.375-1.4V12l-7-2-2-7z" opacity=".2"/>
    <path d="M6.375 2C5.613 2 5 2.624 5 3.4v25.2c0 .775.613 1.4 1.375 1.4h19.25c.761 0 1.375-.625 1.375-1.4V11l-7-2-2-7z" fill="#f4f4f7"/>
    <path d="m27 12-9-9v7.594c0 .78.628 1.406 1.406 1.406z" opacity=".2"/>
    <path d="m27 11-9-9v7.594c0 .78.628 1.406 1.406 1.406z" fill="#fafafa"/>
    <path d="M6.375 2C5.613 2 5 2.625 5 3.4v1C5 3.625 5.613 3 6.375 3H18V2z" fill="#f4f4f7" opacity=".2"/>
    <path d="M8 13h7v7H8zm9 8h7v7h-7z" fill="#1d6ad7"/>
</svg>
